src/assets/icons-langs/javascript.svg

<?xml version="1.0" encoding="UTF-8" standalone="no" ?>
<!-- Uploaded to: SVG Repo, www.svgrepo.com, Generator: SVG Repo Mixer Tools -->
<svg width="800px" height="800px" viewBox="0 0 256 256" version="1.1" xmlns="http://www.w3.org/2000/svg" xmlns:xlink="http://www.w3.org/1999/xlink" preserveAspectRatio="xMidYMid">
    <g>
        <path d="M0,0 L256,0 L256,256 L0,256 L0,0 Z" fill="#F7DF1E">
</path>
        <path d="M67.311746,213.932292 L86.902654,202.076241 C90.6821079,208.777346 94.1202286,214.447137 102.367086,214.447137 C110.272203,214.447137 115.256076,211.354819 115.256076,199.326883 L115.256076,117.528787 L139.313575,117.528787 L139.313575,199.666997 C139.313575,224.58433 124.707759,235.925943 103.3984,235.925943 C84.1532952,235.925943 72.9819429,225.958603 67.3113397,213.93026" fill="#000000">
</path>
        <path d="M152.380952,211.354413 L171.969422,200.0128 C177.125994,208.433981 183.827911,214.619835 195.684368,214.619835 C205.652521,214.619835 212.009041,209.635962 212.009041,202.762159 C212.009041,194.513676 205.479416,191.592025 194.481168,186.78207 L188.468419,184.202565 C171.111213,176.81473 159.597308,167.53534 159.597308,147.944838 C159.597308,129.901308 173.344508,116.153295 194.825752,116.153295 C210.119924,116.153295 221.117765,121.48094 229.021663,135.400432 L210.29059,147.428775 C206.166146,140.040127 201.699556,137.119289 194.826159,137.119289 C187.78047,137.119289 183.312254,141.587098 183.312254,147.428775 C183.312254,154.646349 187.78047,157.568406 198.089956,162.036622 L204.103924,164.614095 C224.553448,173.378641 236.067352,182.313448 236.067352,202.418387 C236.067352,224.071924 219.055137,235.927975 196.200432,235.927975 C173.860978,235.927975 159.425829,225.274311 152.381359,211.354413" fill="#000000">
</path>
    </g>
</svg>

<svg width="256px" height="256px" viewBox="0 0 256 256" xmlns="http://www.w3.org/2000/svg" preserveAspectRatio="xMinYMin meet"><path d="M0 0h256v256H0V0z" fill="#F7DF1E"/><path d="M67.312 213.932l19.59-11.856c3.78 6.701 7.218 12.371 15.465 12.371 7.905 0 12.89-3.092 12.89-15.12v-81.798h24.057v82.138c0 24.917-14.606 36.259-35.916 36.259-19.245 0-30.416-9.967-36.087-21.996M152.381 211.354l19.588-11.341c5.157 8.421 11.859 14.607 23.715 14.607 9.969 0 16.325-4.984 16.325-11.858 0-8.248-6.53-11.17-17.528-15.98l-6.013-2.58c-17.357-7.387-28.87-16.667-28.87-36.257 0-18.044 13.747-31.792 35.228-31.792 15.294 0 26.292 5.328 34.196 19.247L210.29 147.43c-4.125-7.389-8.591-10.31-15.465-10.31-7.046 0-11.514 4.468-11.514 10.31 0 7.217 4.468 10.14 14.778 14.608l6.014 2.577c20.45 8.765 31.963 17.7 31.963 37.804 0 21.654-17.012 33.51-39.867 33.51-22.339 0-36.774-10.654-43.819-24.574"/></svg>
